X:53
T:Kericuff
M:4/4
L:1/16
R:Hornpipe
C:Gris Sanderson
Q:600
N:This 3-part hornpipe is named after a place in Brittany, near 
N:to where a notorious egg-throwing contest took place.
K:Bm
B,3F F3EF4-F3B|A3F A3B A3F E3D|
E4e3d B3A G3E|D3B, A,3B,E4E3D|
B,3F F3EF4f3e|d3B B3AB4b3f|
|1a3b a3f f3e d3B|A3F E3D E4E3D:|
|2a3b a3f f3e d3B|A3F E3DB,4E3F||
|:E3F E3DB,4E3F|E3D B,3C (3DCB, C3A,|
E3F E3DB,4E3F|A3B d3e f3b a3f|
e3f e3d B4e3f|e3d B3c (3dcB c3A|
B3A F3E F3B A3F|1F3E D3F E4E4:|2E3F A3dB4B4||
|:f3B d3e f3c e3f|d3e f3a f3e d3c|
(3ABc e3f a3a-a4|b4b3a b3a f3e-|
e3A c3d e3B d3e|f3d e3f a3a-a4|
b4b3a f3e d3B|1A3F E3D EE3-E4:|2A3F E3D B,3B,- B,3A,||
